assets/images/vector/icons/bolt_lightning_icon.svg

<svg fill="none" height="59" viewBox="0 0 45 59" width="45" xmlns="http://www.w3.org/2000/svg"><path d="m15.9512 53.3333 6.6667-23.3333h-15.94666c-1.16 0-1.96334-1.1533-1.56334-2.24l7.9433-21.66667c.24-.65666.8667-1.09333 1.5634-1.09333h13.9c1.1733 0 1.9766 1.17667 1.5533 2.27l-4.95 12.73h12.5c1.3733 0 2.1567 1.5667 1.3333 2.6667z" stroke="#111" stroke-linecap="round" stroke-linejoin="round" stroke-width="10"/></svg>

<svg width="45" height="59" viewBox="0 0 45 59" fill="none" xmlns="http://www.w3.org/2000/svg">
<path d="M15.9512 53.3333L22.6179 30H6.67124C5.51124 30 4.7079 28.8467 5.1079 27.76L13.0512 6.09333C13.2912 5.43667 13.9179 5 14.6146 5H28.5146C29.6879 5 30.4912 6.17667 30.0679 7.27L25.1179 20H37.6179C38.9912 20 39.7746 21.5667 38.9512 22.6667L15.9512 53.3333Z" stroke="#111111" stroke-width="10" stroke-linecap="round" stroke-linejoin="round"/>
</svg>
